dist/images/ico/ico_chk_01.svg

<svg width="18" height="14" viewBox="0 0 18 14" fill="none" xmlns="http://www.w3.org/2000/svg">
<path d="M5.79992 10.9034L2.29992 7.40344C1.90992 7.01344 1.28992 7.01344 0.899922 7.40344C0.509922 7.79344 0.509922 8.41344 0.899922 8.80344L5.08992 12.9934C5.47992 13.3834 6.10992 13.3834 6.49992 12.9934L17.0999 2.40344C17.4899 2.01344 17.4899 1.39344 17.0999 1.00344C16.7099 0.613438 16.0899 0.613438 15.6999 1.00344L5.79992 10.9034Z" fill="#253981"/>
</svg>

<svg width="18" height="14" fill="none" xmlns="http://www.w3.org/2000/svg"><path d="M5.8 10.903l-3.5-3.5a.984.984 0 00-1.4 0 .984.984 0 000 1.4l4.19 4.19c.39.39 1.02.39 1.41 0l10.6-10.59a.984.984 0 000-1.4.984.984 0 00-1.4 0l-9.9 9.9z" fill="#253981"/></svg>
